svgs/thin/person-skiing.svg

<svg xmlns="http://www.w3.org/2000/svg" viewBox="0 0 512 512"><!--! Font Awesome Pro 6.0.0-alpha3 by @fontawesome - https://fontawesome.com License - https://fontawesome.com/license (Commercial License) --><path d="M432.1 96.02c26.51 0 47.98-21.5 47.98-48.01S458.6 0 432.1 0c-26.51 0-47.98 21.5-47.98 48.01S405.6 96.02 432.1 96.02zM432 16c17.65 0 32.01 14.36 32.01 32.01s-14.36 32.01-32.01 32.01c-17.65 0-32.01-14.36-32.01-32.01S414.4 16 432 16zM250.1 358.8c2.375 9.217 8.531 16.1 16.88 21.37c21.47 11.21 38.23-3.893 42.94-11.06l34.38-48.31c12.16-18.44 9.75-43.06-5.688-58.5l-31.88-32.5c-3.094-3.156-8.156-3.219-11.31-.125s-3.219 8.156-.125 11.31l31.94 32.56c10.16 10.16 11.72 26.31 3.844 38.22l-34.38 48.34c-13 19.75-41.22-.7539-28.97-19.44l28.5-39.18c2.406-3.312 1.938-7.875-1.062-10.62L212.2 214.8C202.8 205.2 198.5 191.8 200.4 177.1c.625-4.373-2.406-8.436-6.783-9.029C189.3 168.1 185.2 171.3 184.6 175.7c-2.656 18.78 3.25 37.12 16.53 50.62l77.94 71.53l-24.53 33.75C249.3 339.6 247.7 349.5 250.1 358.8zM125.1 91.99l-12.22 24.44C110.9 120.4 112.5 125.2 116.4 127.1c4.803 2.4 9.221-.5996 10.72-3.594l12.09-24.18l294.6 153.3c4.611 2.287 9.438 3.347 14.24 3.347c11.74 0 23.08-6.464 28.67-17.73c7.875-15.75 1.472-35.01-14.41-42.89l-52.03-26.1l-17.12-51.15c-6.523-19.47-28.92-44.19-60.07-44.19c-7.656 0-15.82 1.529-24.43 4.959l-47.92 19.12C244.1 104.4 230.1 112.6 215.8 121.6L146.3 85.18l12.81-25.62C161.1 55.62 159.5 50.81 155.6 48.84C151.7 46.94 146.8 48.46 144.8 52.43L132.2 77.75L107.7 64.9C103.8 62.87 98.96 64.37 96.9 68.28C94.87 72.18 96.37 77.03 100.3 79.09L125.1 91.99zM266.7 112.9l47.88-19.15c6.305-2.512 12.54-3.785 18.53-3.785c23.28 0 40.27 19.45 44.9 33.26l17.13 51.13c1.342 4.004 4.213 7.316 7.988 9.213l52.09 26.17c7.861 3.898 11.15 13.46 7.154 21.44c-5.59 11.27-17.21 9.25-21.31 7.225l-81.64-41.47l-15.97-39.92c-1.625-4.094-6.375-6.031-10.41-4.469c-4.094 1.656-6.094 6.312-4.469 10.41l9.055 22.63l-105.7-55.5C243.1 123.6 254.7 117.7 266.7 112.9zM509.7 479.9c-3.125-3.125-8.188-3.125-11.31 0c-16.72 16.75-42.19 20.87-63.13 10.34L11.68 270.5C7.805 268.5 2.93 269.1 .8984 273.9c-2.031 3.938-.5 8.75 3.406 10.78l423.6 219.8C438 509.5 448.8 512 459.6 512c18.34 0 36.44-7.156 50.06-20.78C512.8 488.1 512.8 483 509.7 479.9z"/></svg>

<svg xmlns="http://www.w3.org/2000/svg" viewBox="0 0 512 512"><!-- Font Awesome Pro 6.0.0-alpha2 by @fontawesome - https://fontawesome.com License - https://fontawesome.com/license (Commercial License) --><path d="M432.045 96.018C458.553 96.018 480.057 74.514 480.057 48.008S458.553 0 432.045 0C405.539 0 384.035 21.502 384.035 48.008S405.539 96.018 432.045 96.018ZM432.045 16C449.697 16 464.057 30.357 464.057 48.008S449.697 80.018 432.045 80.018C414.394 80.018 400.035 65.658 400.035 48.008S414.394 16 432.045 16ZM250.09 358.822C252.465 368.039 258.621 375.82 266.965 380.195C288.432 391.406 305.193 376.303 309.902 369.133L344.279 320.824C356.435 302.389 354.029 277.764 338.592 262.328L306.715 229.83C303.621 226.674 298.558 226.611 295.402 229.705S292.183 237.861 295.277 241.016L327.217 273.576C337.373 283.732 338.935 299.889 331.06 311.793L296.683 360.135C283.682 379.887 255.459 359.381 267.715 340.697L296.215 301.514C298.621 298.201 298.152 293.639 295.152 290.889L212.246 214.799C202.808 205.207 198.496 191.77 200.433 177.957C201.058 173.584 198.027 169.521 193.65 168.928C189.338 168.053 185.213 171.334 184.619 175.709C181.963 194.488 187.869 212.83 201.152 226.33L279.09 297.857L254.558 331.605C249.308 339.604 247.683 349.541 250.09 358.822ZM125.06 91.988L112.838 116.43C110.869 120.367 112.463 125.18 116.432 127.148C121.234 129.549 125.652 126.549 127.15 123.555L139.244 99.371L433.795 252.67C438.406 254.957 443.291 256.043 448.094 256.043C459.836 256.043 471.092 249.561 476.682 238.295C484.557 222.541 478.182 203.287 462.303 195.41L410.291 169.281L393.162 118.146C386.639 98.676 364.242 73.969 333.092 73.969C325.435 73.969 317.25 75.461 308.642 78.891L260.738 98.051C244.965 104.359 230.109 112.57 215.769 121.627L146.34 85.18L159.15 59.559C161.119 55.621 159.525 50.809 155.557 48.84C151.713 46.936 146.807 48.465 144.838 52.434L132.182 77.748L107.713 64.902C103.807 62.871 98.963 64.371 96.9 68.277C94.869 72.184 96.369 77.027 100.275 79.09L125.06 91.988ZM266.682 112.904L314.562 93.752C320.867 91.24 327.103 89.967 333.09 89.967C356.373 89.967 373.363 109.42 377.99 123.229L395.119 174.363C396.461 178.367 399.332 181.68 403.107 183.576L455.193 209.742C463.055 213.641 466.34 223.201 462.348 231.184C456.758 242.453 445.139 240.434 441.041 238.408L359.404 196.941L343.435 157.021C341.81 152.928 337.06 150.99 333.029 152.553C328.935 154.209 326.935 158.865 328.56 162.959L337.615 185.592L231.896 130.094C243.074 123.566 254.65 117.717 266.682 112.904ZM509.656 479.908C506.531 476.783 501.469 476.783 498.344 479.908C481.625 496.656 456.156 500.781 435.217 490.252L11.68 270.484C7.805 268.453 2.93 269.953 0.898 273.889C-1.133 277.826 0.398 282.639 4.305 284.67L427.935 504.5C438.029 509.531 448.842 512 459.594 512C477.937 512 496.031 504.844 509.656 491.221C512.781 488.096 512.781 483.033 509.656 479.908Z"/></svg>
